svgs/tricount.svg

<svg viewBox="0 0 192 192" xml:space="preserve" style="fill-rule:evenodd;clip-rule:evenodd;stroke-linejoin:round;stroke-miterlimit:2" xmlns="http://www.w3.org/2000/svg"><path d="M1404.23 754.158v14.504c0 9.756 7.7 24.131 24.21 23.414 8.23-.358 9.39-1.335 13.15-2.378a6.007 6.007 0 0 0 4.18-7.384 6.007 6.007 0 0 0-7.39-4.18c-2.99.831-3.9 1.668-10.46 1.953-8.02.348-11.69-6.691-11.69-11.425v-14.504c0-3.312-2.69-6-6-6s-6 2.688-6 6Zm-85.51-24.343v38.847c0 9.756 7.7 24.131 24.21 23.414 8.24-.358 9.39-1.335 13.15-2.378a6.007 6.007 0 0 0 4.18-7.384 5.997 5.997 0 0 0-7.38-4.18c-3 .831-3.91 1.668-10.47 1.953-8.02.348-11.69-6.691-11.69-11.425v-38.847c0-3.312-2.69-6-6-6s-6 2.688-6 6Zm85.51-29.047h-24.72c-3.31 0-6 2.688-6 6 0 3.311 2.69 6 6 6h24.72v21.729c0 3.311 2.69 6 6 6s6-2.689 6-6v-21.729H1442c3.32 0 6-2.689 6-6 0-3.312-2.68-6-6-6h-25.77V677.9c0-3.312-2.69-6-6-6s-6 2.688-6 6v22.868Zm-110.23 12h62.5c3.31 0 6-2.689 6-6 0-3.312-2.69-6-6-6H1294c-3.31 0-6 2.688-6 6 0 3.311 2.69 6 6 6Zm24.72-34.868v6.501c0 3.311 2.69 6 6 6s6-2.689 6-6V677.9c0-3.312-2.69-6-6-6s-6 2.688-6 6Z" style="fill-rule:evenodd;clip-rule:evenodd;stroke-linejoin:round;stroke-miterlimit:2" transform="translate(-1272 -636)"/></svg>

<?xml version="1.0" encoding="UTF-8" standalone="no"?>
<svg
   width="100%"
   height="100%"
   viewBox="0 0 192 192"
   version="1.1"
   xml:space="preserve"
   style="fill-rule:evenodd;clip-rule:evenodd;stroke-linejoin:round;stroke-miterlimit:2;"
   id="svg4913"
   sodipodi:docname="tricount.svg"
   inkscape:version="1.2.1 (9c6d41e410, 2022-07-14)"
   xmlns:inkscape="http://www.inkscape.org/namespaces/inkscape"
   xmlns:sodipodi="http://sodipodi.sourceforge.net/DTD/sodipodi-0.dtd"
   xmlns="http://www.w3.org/2000/svg"
   xmlns:svg="http://www.w3.org/2000/svg"><defs
   id="defs4917" /><sodipodi:namedview
   id="namedview4915"
   pagecolor="#ffffff"
   bordercolor="#000000"
   borderopacity="0.25"
   inkscape:showpageshadow="2"
   inkscape:pageopacity="0.0"
   inkscape:pagecheckerboard="0"
   inkscape:deskcolor="#d1d1d1"
   showgrid="false"
   inkscape:zoom="5.3489583"
   inkscape:cx="96.093476"
   inkscape:cy="95.906524"
   inkscape:window-width="1274"
   inkscape:window-height="1303"
   inkscape:window-x="1282"
   inkscape:window-y="36"
   inkscape:window-maximized="0"
   inkscape:current-layer="svg4913" />
    <path
   d="M1404.23,754.158L1404.23,768.662C1404.23,778.418 1411.93,792.793 1428.44,792.076C1436.67,791.718 1437.83,790.741 1441.59,789.698C1444.78,788.814 1446.65,785.505 1445.77,782.314C1444.88,779.122 1441.58,777.25 1438.38,778.134C1435.39,778.965 1434.48,779.802 1427.92,780.087C1419.9,780.435 1416.23,773.396 1416.23,768.662C1416.23,768.662 1416.23,754.158 1416.23,754.158C1416.23,750.846 1413.54,748.158 1410.23,748.158C1406.92,748.158 1404.23,750.846 1404.23,754.158ZM1318.72,729.815L1318.72,768.662C1318.72,778.418 1326.42,792.793 1342.93,792.076C1351.17,791.718 1352.32,790.741 1356.08,789.698C1359.27,788.814 1361.14,785.505 1360.26,782.314C1359.38,779.122 1356.07,777.25 1352.88,778.134C1349.88,778.965 1348.97,779.802 1342.41,780.087C1334.39,780.435 1330.72,773.396 1330.72,768.662L1330.72,729.815C1330.72,726.503 1328.03,723.815 1324.72,723.815C1321.41,723.815 1318.72,726.503 1318.72,729.815ZM1404.23,700.768L1379.51,700.768C1376.2,700.768 1373.51,703.456 1373.51,706.768C1373.51,710.079 1376.2,712.768 1379.51,712.768L1404.23,712.768L1404.23,734.497C1404.23,737.808 1406.92,740.497 1410.23,740.497C1413.54,740.497 1416.23,737.808 1416.23,734.497L1416.23,712.768L1442,712.768C1445.32,712.768 1448,710.079 1448,706.768C1448,703.456 1445.32,700.768 1442,700.768L1416.23,700.768L1416.23,677.9C1416.23,674.588 1413.54,671.9 1410.23,671.9C1406.92,671.9 1404.23,674.588 1404.23,677.9L1404.23,700.768ZM1294,712.768L1356.5,712.768C1359.81,712.768 1362.5,710.079 1362.5,706.768C1362.5,703.456 1359.81,700.768 1356.5,700.768L1294,700.768C1290.69,700.768 1288,703.456 1288,706.768C1288,710.079 1290.69,712.768 1294,712.768ZM1318.72,677.9L1318.72,684.401C1318.72,687.712 1321.41,690.401 1324.72,690.401C1328.03,690.401 1330.72,687.712 1330.72,684.401L1330.72,677.9C1330.72,674.588 1328.03,671.9 1324.72,671.9C1321.41,671.9 1318.72,674.588 1318.72,677.9Z"
   id="path4907"
   style="fill-rule:evenodd;clip-rule:evenodd;stroke-linejoin:round;stroke-miterlimit:2"
   transform="translate(-1272,-636)"
   inkscape:label="tricount" />
</svg>
